X: 26
T: I am called
N: Derived from ojibwa26.krn
C: Chippewa Songs ~ 1910
O: Red Wing, Minnesota, U.S.A
N: Chippewa Music by Frances Densmore, 1910
Z: transcribed to **kern format by Paul von Hippel and Daniel T. Shanahan
L: 1/8
M: 3/4
Q: 1/4=108
K: G clef=treble
%%linebreak <none>
E E E E F3/ G/ | 
E4-E B, | 
E E E D E/ D3/ | 
[M:2/4]B,> B,B,2- | 
B,4[K:clef=bass] | 
B, B, B, B, | 
B, B, ^C D | 
[M:3/4]B,4-B, G, | 
[M:2/4]A, A, A, G, | 
A, G,E,2 | 
E,4- | 
E,2B,,2 | 
[M:3/4]E, E, E,> E,E,2 | 
[M:2/4]E,3B,, | 
E, E, E, D, | 
(3E, E, D,B,,2 | 
B,,4 |]  



